sands/images/icon-serv1.svg

<svg width="61" height="61" viewBox="0 0 61 61" fill="none" xmlns="http://www.w3.org/2000/svg">
<path opacity="0.7" d="M57.1562 39.4946H56.1875V14.8215L43.9444 4.61963H41.6562V13.9661L31.3749 4.61963H29.0625V14.3071H26.9971L25.0596 0.744629H17.5673L15.6298 14.3071H13.5625V22.8777C11.3663 23.8425 9.55962 25.6037 8.57053 27.8696H7.75C6.14769 27.8696 4.84375 29.1736 4.84375 30.7759C4.84375 32.3782 6.14769 33.6821 7.75 33.6821H7.94859C8.51725 36.4934 10.2852 38.8233 12.6722 40.1728C5.36978 42.2536 0 48.9709 0 56.9321V60.8071H34.875V56.9321C34.875 52.4643 33.171 48.3965 30.3974 45.3071H36.8125V57.9009C36.8125 59.5032 38.1164 60.8071 39.7188 60.8071H57.1562C58.7586 60.8071 60.0625 59.5032 60.0625 57.9009V42.4009C60.0625 40.7986 58.7586 39.4946 57.1562 39.4946ZM19.2462 2.68213H23.3788L25.0393 14.3071H17.5867L19.2462 2.68213ZM31 16.2446V6.89813L41.2813 16.2446H43.5938V6.84969L54.25 15.7302V18.1821H15.5V16.2446H31ZM17.4375 23.9946C20.2256 23.9946 22.7559 25.5107 24.1238 27.8696H10.7512C12.1191 25.5107 14.6494 23.9946 17.4375 23.9946ZM6.78125 30.7759C6.78125 30.2411 7.21525 29.8071 7.75 29.8071H27.125C27.6597 29.8071 28.0938 30.2411 28.0938 30.7759C28.0938 31.3106 27.6597 31.7446 27.125 31.7446H7.75C7.21525 31.7446 6.78125 31.3106 6.78125 30.7759ZM9.94325 33.6821H24.9327C24.0676 37.0602 21.0209 39.4946 17.4385 39.4946C13.856 39.4946 10.8083 37.0602 9.94325 33.6821ZM11.3218 42.6944L16.1122 48.1688L13.9742 50.3068L11.1823 42.7622C11.2298 42.7409 11.2743 42.7148 11.3218 42.6944ZM17.4375 49.5832L20.1607 52.3063L17.732 58.8696H17.143L14.7143 52.3063L17.4375 49.5832ZM20.9008 50.3068L18.7628 48.1688L23.5532 42.6944C23.6007 42.7148 23.6453 42.7409 23.6917 42.7613L20.9008 50.3068ZM17.4375 46.7428L13.2971 42.0105C14.6175 41.6433 16.0018 41.4321 17.4375 41.4321C18.8732 41.4321 20.2575 41.6433 21.5779 42.0105L17.4375 46.7428ZM1.9375 56.9321C1.9375 51.3076 4.95903 46.3883 9.45403 43.6709L15.0776 58.8696H7.75V51.1196H5.8125V58.8696H1.9375V56.9321ZM32.9375 58.8696H29.0625V51.1196H27.125V58.8696H19.7974L25.421 43.6709C29.916 46.3883 32.9375 51.3076 32.9375 56.9321V58.8696ZM28.3727 43.3696C26.5748 41.9175 24.4823 40.8228 22.2018 40.1728C24.5888 38.8233 26.3568 36.4925 26.9254 33.6821H27.125C28.7273 33.6821 30.0312 32.3782 30.0312 30.7759C30.0312 29.1736 28.7273 27.8696 27.125 27.8696H26.3045C24.7738 24.3666 21.2951 22.0571 17.4375 22.0571C16.7778 22.0571 16.1307 22.1317 15.5 22.2615V20.1196H54.25V39.4946H39.7188C38.1164 39.4946 36.8125 40.7986 36.8125 42.4009V43.3696H28.3727ZM46.5 41.4321H50.375V45.3071H46.5V41.4321ZM58.125 57.9009C58.125 58.4356 57.691 58.8696 57.1562 58.8696H39.7188C39.184 58.8696 38.75 58.4356 38.75 57.9009V42.4009C38.75 41.8661 39.184 41.4321 39.7188 41.4321H44.5625V47.2446H52.3125V41.4321H57.1562C57.691 41.4321 58.125 41.8661 58.125 42.4009V57.9009Z" fill="#393939"/>
<path d="M54.25 54.9946H56.1875V56.9321H54.25V54.9946Z" fill="#FE9901"/>
<path d="M46.5 54.9946H48.4375V56.9321H46.5V54.9946Z" fill="#FE9901"/>
<path d="M50.375 54.9946H52.3125V56.9321H50.375V54.9946Z" fill="#FE9901"/>
<path d="M46.5 51.1196H56.1875V53.0571H46.5V51.1196Z" fill="#FE9901"/>
<path d="M52.3125 22.0571H32.9375V35.6196H52.3125V22.0571ZM50.375 27.8696H46.5V23.9946H50.375V27.8696ZM40.6875 27.8696V23.9946H44.5625V27.8696H40.6875ZM44.5625 29.8071V33.6821H40.6875V29.8071H44.5625ZM38.75 23.9946V27.8696H34.875V23.9946H38.75ZM34.875 29.8071H38.75V33.6821H34.875V29.8071ZM46.5 33.6821V29.8071H50.375V33.6821H46.5Z" fill="#FE9901"/>
</svg>

<svg width="61" height="61" fill="none" xmlns="http://www.w3.org/2000/svg"><path opacity=".7" d="M57.156 39.495h-.968V14.822L43.944 4.62h-2.288v9.346L31.375 4.62h-2.313v9.687h-2.065L25.06.745h-7.493L15.63 14.307h-2.068v8.57a9.699 9.699 0 00-4.991 4.993H7.75a2.91 2.91 0 00-2.906 2.906 2.91 2.91 0 002.906 2.906h.199a9.654 9.654 0 004.723 6.49C5.37 42.255 0 48.972 0 56.933v3.875h34.875v-3.875c0-4.468-1.704-8.535-4.478-11.625h6.416v12.594a2.91 2.91 0 002.906 2.906h17.437a2.91 2.91 0 002.907-2.906V42.4a2.91 2.91 0 00-2.907-2.906zM19.246 2.682h4.133l1.66 11.625h-7.452l1.66-11.625zM31 16.245V6.898l10.281 9.347h2.313V6.85l10.656 8.88v2.452H15.5v-1.937H31zm-13.563 7.75c2.789 0 5.319 1.516 6.687 3.875H10.75c1.368-2.36 3.898-3.875 6.687-3.875zm-10.656 6.78a.97.97 0 01.969-.968h19.375a.97.97 0 010 1.938H7.75a.97.97 0 01-.969-.97zm3.162 2.907h14.99a7.73 7.73 0 01-7.494 5.813 7.73 7.73 0 01-7.496-5.813zm1.379 9.012l4.79 5.475-2.138 2.138-2.792-7.545c.048-.021.092-.047.14-.068zm6.116 6.89l2.723 2.722-2.429 6.564h-.589l-2.429-6.564 2.723-2.723zm3.463.723l-2.138-2.138 4.79-5.475c.048.02.092.047.139.067L20.9 50.307zm-3.463-3.564l-4.14-4.733a15.416 15.416 0 014.14-.578c1.435 0 2.82.211 4.14.578l-4.14 4.733zm-15.5 10.19c0-5.625 3.021-10.545 7.516-13.262l5.624 15.199H7.75v-7.75H5.812v7.75H1.938v-1.938zm31 1.937h-3.876v-7.75h-1.937v7.75h-7.328l5.624-15.2c4.495 2.718 7.517 7.638 7.517 13.262v1.938zm-4.565-15.5a17.408 17.408 0 00-6.171-3.197 9.655 9.655 0 004.723-6.49h.2a2.91 2.91 0 002.906-2.907 2.91 2.91 0 00-2.906-2.906h-.82a9.699 9.699 0 00-8.867-5.813 9.6 9.6 0 00-1.938.205V20.12h38.75v19.375H39.719a2.91 2.91 0 00-2.907 2.906v.969h-8.44zM46.5 41.432h3.875v3.875H46.5v-3.875zm11.625 16.469a.97.97 0 01-.969.969H39.72a.97.97 0 01-.969-.97V42.4a.97.97 0 01.969-.968h4.843v5.813h7.75v-5.813h4.844a.97.97 0 01.969.969v15.5z" fill="#393939"/><path d="M54.25 54.995h1.938v1.937H54.25v-1.937zm-7.75 0h1.938v1.937H46.5v-1.937zm3.875 0h1.938v1.937h-1.938v-1.937zM46.5 51.12h9.688v1.937H46.5V51.12zm5.813-29.063H32.936V35.62h19.376V22.057zm-1.938 5.813H46.5v-3.875h3.875v3.875zm-9.688 0v-3.875h3.876v3.875h-3.876zm3.876 1.937v3.875h-3.876v-3.875h3.876zm-5.813-5.812v3.875h-3.875v-3.875h3.875zm-3.875 5.812h3.875v3.875h-3.875v-3.875zM46.5 33.682v-3.875h3.875v3.875H46.5z" fill="#FE9901"/></svg>
